!!!COM: Bach, Johann Sebastian
!!!CDT: 1685/3//-1750/7/28/
!!!OTL@@DE: O Haupt voll Blut und Wunden
!!!AGN: 4-Part Chorale
!!!SCT: BH 098
!!!SCT: BWV 244
**harm	**root	**kern	**kern	**kern	**kern
!	!	!bass	!tenor	!alto	!soprno
*	*Iorgan	*Iorgan	*Iorgan	*Iorgan	*Iorgan
*	*	*clefF4	*clefF4	*clefG2	*clefG2
*M4/4	*M4/4	*M4/4	*M4/4	*M4/4	*M4/4
*met(c)	*met(c)	*met(c)	*met(c)	*met(c)	*met(c)
*MM60	*MM60	*MM60	*MM60	*MM60	*MM60
*k[f#c#g#]	*k[f#c#g#]	*k[f#c#g#]	*k[f#c#g#]	*k[f#c#g#]	*k[f#c#g#]
*A:	*A:	*A:	*A:	*A:	*A:
*>[A,A,B]	*>[A,A,B]	*>[A,A,B]	*>[A,A,B]	*>[A,A,B]	*>[A,A,B]
*>A	*>A	*>A	*>A	*>A	*>A
I	4DD	4AA	4E	4A	4c#
=1	=1	=1	=1	=1	=1
IV	4GG	4D	4D	4A	4f#
Ib	4DD	4C#	4E	4A	4e
IVb	8GG	8FF#	8F#	8A	4d
V7b	8AA	8GG#	8E	8B	.
I	4DD	4AA	4E	8B	4c#
.	.	.	.	8A	.
=2	=2	=2	=2	=2	=2
ii7b	4EE	4DD	4F#	4A	2B
V	4AA	4EE	4E	4G#	.
I;	4DD;	4AA;	4E;	4A;	4c#;
viib/vi	4AA#	4GG#	4E#	4B	4g#
=3	=3	=3	=3	=3	=3
vi	4BB	8FF#	4C#	8A	4a
.	.	8GG#	.	8B	.
vib	4BB	8AA	4F#	4c#	4a
.	.	8BB	.	.	.
V/vi	4FF#	4C#	4F#	4c#	8g#
.	.	.	.	.	8f#
V/vi	4FF#	4CC#	4E#	8c#	4g#
.	.	.	.	8B	.
=4	=4	=4	=4	=4	=4
vi;	2.BB;	2.FF#;	2.F#;	2.A;	2.f#;
=:|!	=:|!	=:|!	=:|!	=:|!	=:|!
*>B	*>B	*>B	*>B	*>B	*>B
vi	4BB	4F#	4c#	8f#	4a
.	.	.	.	8e	.
=5	=5	=5	=5	=5	=5
viib	4CC#	4BB	8B	4d	8g#
.	.	.	8A	.	8f#
iii	4FF#	4C#	4G#	8c#	4e
.	.	.	.	8B	.
IV	4GG	8D	8F#	4A	4f#
.	.	8C#	8E	.	.
viib	4CC#	4BB	8D	4d	4g#
.	.	.	8E	.	.
!!linebreak: 2
=6	=6	=6	=6	=6	=6
IVc	4GG	2AA	4F#	4d	2a
I	4DD	.	8E	8c#	.
.	.	.	8D	8B	.
I;	4DD;	4AA;	4E;	4c#;	4a;
I	4DD	4AA	4A	4c#	4e
=7	=7	=7	=7	=7	=7
IV	4GG	4D	4A	4d	4f#
I	4DD	4AA	8A	4c#	4e
.	.	.	8G#	.	.
ii	4EE	8BB	4F#	4c#	4d
.	.	8C#	.	.	.
iib	4EE	8D	4F#	4B	4d
.	.	8E	.	.	.
=8	=8	=8	=8	=8	=8
VI;	2.BB;	2.F#;	2.F#;	2.A#;	2.c#;
V7b/V	4EE	4D#	4F#	4B	4a
=9	=9	=9	=9	=9	=9
V	4AA	4E	4E	4B	8g#
.	.	.	.	.	8a
Vb	4AA	4GG#	8E	4B	4b
.	.	.	8D#	.	.
Ib	4DD	8C#	8E	4c#	4a
.	.	8D#	8F#	.	.
V	4AA	4E	8G#	4B	4g#
.	.	.	8E	.	.
=10	=10	=10	=10	=10	=10
vib	4BB	4AA	8C#	4c#	2f#
.	.	.	8F#	.	.
V/V	4EE	4BB	4D#	4B	.
V;	4AA;	4EE;	4E;	4B;	4g#;
I	4DD	8AA	4E	4A	4c#
.	.	8GG#	.	.	.
=11	=11	=11	=11	=11	=11
IVb	4GG	4FF#	4D	8A	4d
.	.	.	.	8G#	.
Ic	4DD	4EE	4E	4A	4c#
ii7b	4EE	4DD	4F#	4A	4B
V	4AA	4EE	8BB	4G#	4e
.	.	.	8E	.	.
=12	=12	=12	=12	=12	=12
I;	2.DD;	2.AA;	2.E;	2.A;	2.c#;
==	==	==	==	==	==
*-	*-	*-	*-	*-	*-
!!chor2scor: -l 2 -s 0.6 -o %b.pmx
!!!YEC: Copyright 1994, David Huron
!!!YEC: Changes/Additions 2001 by Craig Stuart Sapp
!!!YEN: United States of America
!!!SMA: 371 Bach Chorales, edited by Ludwig Erk, C.F. Peters
!!!PDT: 1850, 1865
!!!ONB: Harmony and Root analysis done manually by Craig Sapp
